Yaru++/status/16/folder-drag-accept.svg

<svg height="16" width="16" xmlns="http://www.w3.org/2000/svg">
  <path d="m3.992 1c-1.257.014-2.177-.028-2.93.387a1.878 1.878 0 0 0 -.84.996c-.163.437-.222.96-.222 1.617v8c0 .658.058 1.179.223 1.617.164.439.463.79.84.998.752.416 1.673.37 2.931.385h8.02c1.258-.015 2.179.03 2.932-.385.376-.207.675-.56.84-.998.155-.438.214-.96.214-1.617v-6c0-.658-.058-1.179-.223-1.617-.02-.055-.048-.104-.074-.154l-.027-.057a1.838 1.838 0 0 0 -.738-.787c-.753-.416-1.673-.37-2.932-.385h-3.043l-2.021-2h-2.948zm0 1h2.54l2.021 2h3.447c1.282.015 2.032.026 2.455.26a.847.847 0 0 1 .33.367c-.016-.03 0 .01.031.064.01.017 0 .002.01.012v.002c.011.022.025.053.018.03.1.266.158.666.158 1.265h-14.002v-2c0-.599.058-.998.158-1.266a.877.877 0 0 1 .387-.472c.423-.234 1.173-.247 2.45-.262z" fill="#808080"/>
</svg>

<svg height="16" width="16" xmlns="http://www.w3.org/2000/svg">
    <path d="M3.992 1c-1.257.014-2.177-.028-2.93.387a1.878 1.878 0 0 0-.84.996C.059 2.82 0 3.343 0 4v8c0 .658.058 1.179.223 1.617.164.439.463.79.84.998.752.416 1.673.37 2.931.385h8.02c1.258-.015 2.179.03 2.932-.385.376-.207.675-.56.84-.998.155-.438.214-.96.214-1.617V6c0-.658-.058-1.179-.223-1.617-.02-.055-.048-.104-.074-.154l-.027-.057a1.838 1.838 0 0 0-.738-.787c-.753-.416-1.673-.37-2.932-.385H8.963L6.942 1H3.994zm0 1H6.532l2.021 2H12c1.282.015 2.032.026 2.455.26a.847.847 0 0 1 .33.367c-.016-.03 0 .01.031.064.01.017 0 .002.01.012v.002c.011.022.025.053.018.03.1.266.158.666.158 1.265H1V4c0-.599.058-.998.158-1.266a.877.877 0 0 1 .387-.472c.423-.234 1.173-.247 2.45-.262z" style="line-height:normal;font-variant-ligatures:none;font-variant-position:normal;font-variant-caps:normal;font-variant-numeric:normal;font-variant-alternates:normal;font-feature-settings:normal;text-indent:0;text-align:start;text-decoration-line:none;text-decoration-style:solid;text-decoration-color:#000;text-transform:none;shape-padding:0;isolation:auto;mix-blend-mode:normal;marker:none" color="#000" font-weight="400" font-family="sans-serif" white-space="normal" overflow="visible" fill="gray"/>
</svg>
